X:1
T:Crystal Songs
T:Crystal Songs
T:John W. Bischoff
T:Annie Cummings, 1877
T:Public Domain Courtesy of the Cyber Hymnal™
T:Public Domain Courtesy of the Cyber Hymnal™
C:John W. Bischoff
Z:Public Domain
Z:Courtesy of the Cyber Hymnal™
%%score ( 1 2 ) ( 3 4 )
L:1/8
Q:1/4=107
M:4/4
K:Eb
V:1 treble 
V:2 treble 
V:3 bass 
V:4 bass 
V:1
 E[EF] | [EG]2 [EG][EG] [EG]2 [EG][FA] | [GB][Ge][Bd][Ac] [GB]2 [Ac][GB] | %3
w: 1.~Crys- tal|songs, pure and bright, Spark- ling|with a ra- diant light, Light of|
w: 2.~Crys- tal|songs, jew- els rare, Songs of|faith and hope and prayer, Songs of|
w: 3.~Crys- tal|songs, glad and free, Songs of|sweet- est mel- o- dy; Come and|
 [FA]2 [GB][FA] [EG]2 [Ge][Fd] | [Ed][Ge][Fd][Ec] !fermata![DB]2 ||"^Refrain" BB | %6
w: love, Je- sus’ love, Bright- ly|beam- ing from a- bove.||
w: rest, songs of peace, Songs of|tri- umph, songs of grace.||
w: sing, glad- ly sing, Hal- le-|lu- jahs to our king.||
 [Ge]2 [Ge][Ge] [Ge]2 [GB][EG] | [GB][FA][FA][FA] [FA]2 BB | [Af]2 [Af][Af] [Af]2 [FA][FA] | %9
w: |||
w: |||
w: |||
 [FA][EG][EG][EG] [EG]2 [EG][FA] | [GB]2 [Ge][Bd] [Ac]2 [Ac][Ac] | [=Ac]2 [Af][Ae] [GB]2 z2 | %12
w: |||
w: |||
w: |||
 [Ge]2 [GB]2 [Ac]2 [Af]2 | [Ge]2 [Fd]2 [Ge]2 z2 |] %14
w: ||
w: ||
w: ||
V:2
 E x | x8 | x8 | x8 | x6 || BB | x8 | x6 BB | x8 | x8 | x8 | x8 | x8 | x8 |] %14
V:3
 [E,G,][E,A,] | [E,B,]2 [E,B,][E,B,] [E,B,]2 [E,B,][E,B,] | %2
w: ~ ~|~ ~ ~ ~ ~ ~|
 [E,B,][E,B,][E,C][E,D] [E,E]2 [E,B,][E,B,] | [B,,B,]2 [B,,B,][B,,B,] [E,B,]2 [E,B,][E,G,] | %4
w: ~ ~ ~ ~ ~ ~ ~|~ ~ ~ ~ ~ ~|
 [F,=A,][F,A,][F,A,][F,A,] !fermata![B,,B,]2 || B,B, | [E,B,]2 [E,B,][E,B,] [E,B,]2 [E,B,][E,B,] | %7
w: ~ ~ ~ ~ ~|Heart and|voice, join our song, Let the|
 [B,,B,][B,,B,][B,,B,][B,,B,] [B,,B,]2 B,B, | [B,D]2 [B,D][B,D] [B,D]2 [B,,B,][B,,B,] | %9
w: cho- rus flow a- long, Heart and|voice, join our song, Let the|
 [E,B,][E,B,][E,B,][E,B,] [E,B,]2 [E,B,][E,B,] | [E,B,]2 [E,B,][G,E] [A,E]2 [A,E][A,E] | %11
w: cho- rus flow a- long, While we|sing, glad- ly sing, While we|
 [F,F]2 [F,C][F,F] [B,F]2 z2 | [E,E]2 [E,E]2 [A,E]2 [A,C]2 | B,2 [B,,B,]2 [E,B,]2 z2 |] %14
w: sing, glad- ly sing,|Prais- es to the|Lord, our king.|
V:4
 x2 | x8 | x8 | x8 | x6 || B,B, | x8 | x6 B,B, | x8 | x8 | x8 | x8 | x8 | B,2 x6 |] %14

